img/menu-icon-close.svg

<?xml version="1.0" encoding="UTF-8"?>
<svg width="12px" height="12px" viewBox="0 0 12 12" version="1.1" xmlns="http://www.w3.org/2000/svg" xmlns:xlink="http://www.w3.org/1999/xlink">
    <!-- Generator: Sketch 50.2 (55047) - http://www.bohemiancoding.com/sketch -->
    <title>menu-icon-close</title>
    <desc>Created with Sketch.</desc>
    <defs></defs>
    <g id="Home-–-Mobile" stroke="none" stroke-width="1" fill="none" fill-rule="evenodd">
        <g id="Home-Menu-Open-Copy-4" transform="translate(-318.000000, -49.000000)" fill="#000000">
            <g id="Group-2" transform="translate(305.000000, 36.000000)">
                <path d="M18,18 L18,12 C18,11.4477153 18.4477153,11 19,11 C19.5522847,11 20,11.4477153 20,12 L20,18 L26,18 C26.5522847,18 27,18.4477153 27,19 C27,19.5522847 26.5522847,20 26,20 L20,20 L20,26 C20,26.5522847 19.5522847,27 19,27 C18.4477153,27 18,26.5522847 18,26 L18,20 L12,20 C11.4477153,20 11,19.5522847 11,19 C11,18.4477153 11.4477153,18 12,18 L18,18 Z" id="menu-icon-close" transform="translate(19.000000, 19.000000) rotate(45.000000) translate(-19.000000, -19.000000) "></path>
            </g>
        </g>
    </g>
</svg>

<?xml version="1.0" encoding="UTF-8" standalone="no"?>
<svg
   xmlns:dc="http://purl.org/dc/elements/1.1/"
   xmlns:cc="http://creativecommons.org/ns#"
   xmlns:rdf="http://www.w3.org/1999/02/22-rdf-syntax-ns#"
   xmlns:svg="http://www.w3.org/2000/svg"
   xmlns="http://www.w3.org/2000/svg"
   xmlns:sodipodi="http://sodipodi.sourceforge.net/DTD/sodipodi-0.dtd"
   xmlns:inkscape="http://www.inkscape.org/namespaces/inkscape"
   width="27.20339"
   height="27.20339"
   viewBox="0 0 27.20339 27.20339"
   version="1.1"
   id="svg2"
   inkscape:version="0.91 r13725"
   sodipodi:docname="menu-icon-close.svg">
  <metadata
     id="metadata16">
    <rdf:RDF>
      <cc:Work
         rdf:about="">
        <dc:format>image/svg+xml</dc:format>
        <dc:type
           rdf:resource="http://purl.org/dc/dcmitype/StillImage" />
        <dc:title>menu-icon-close</dc:title>
      </cc:Work>
    </rdf:RDF>
  </metadata>
  <sodipodi:namedview
     pagecolor="#ffffff"
     bordercolor="#666666"
     borderopacity="1"
     objecttolerance="10"
     gridtolerance="10"
     guidetolerance="10"
     inkscape:pageopacity="0"
     inkscape:pageshadow="2"
     inkscape:window-width="1920"
     inkscape:window-height="1021"
     id="namedview14"
     showgrid="false"
     inkscape:zoom="13.906433"
     inkscape:cx="5.8720488"
     inkscape:cy="16.634581"
     inkscape:window-x="0"
     inkscape:window-y="0"
     inkscape:window-maximized="1"
     inkscape:current-layer="svg2"
     fit-margin-top="0"
     fit-margin-left="0"
     fit-margin-right="0"
     fit-margin-bottom="0" />
  <!-- Generator: Sketch 50.2 (55047) - http://www.bohemiancoding.com/sketch -->
  <title
     id="title4">menu-icon-close</title>
  <desc
     id="desc6">Created with Sketch.</desc>
  <circle
     style="color:#000000;clip-rule:nonzero;display:inline;overflow:visible;visibility:visible;opacity:1;isolation:auto;mix-blend-mode:normal;color-interpolation:sRGB;color-interpolation-filters:linearRGB;solid-color:#000000;solid-opacity:1;fill:#ffffff;fill-opacity:1;fill-rule:nonzero;stroke:none;stroke-width:1.93312573;stroke-linecap:butt;stroke-linejoin:miter;stroke-miterlimit:4;stroke-dasharray:none;stroke-dashoffset:0;stroke-opacity:1;color-rendering:auto;image-rendering:auto;shape-rendering:auto;text-rendering:auto;enable-background:accumulate"
     id="path4148"
     cx="13.601695"
     cy="13.601695"
     r="13.601695" />
  <defs
     id="defs8" />
  <g
     id="Home-–-Mobile"
     style="fill:none;fill-rule:evenodd;stroke:none;stroke-width:1"
     transform="translate(7.6016951,7.6016951)">
    <g
       id="Home-Menu-Open-Copy-4"
       transform="translate(-318,-49)"
       style="fill:#000000">
      <g
         id="Group-2"
         transform="translate(305,36)">
        <path
           d="m 18,18 0,-6 c 0,-0.552285 0.447715,-1 1,-1 0.552285,0 1,0.447715 1,1 l 0,6 6,0 c 0.552285,0 1,0.447715 1,1 0,0.552285 -0.447715,1 -1,1 l -6,0 0,6 c 0,0.552285 -0.447715,1 -1,1 -0.552285,0 -1,-0.447715 -1,-1 l 0,-6 -6,0 c -0.552285,0 -1,-0.447715 -1,-1 0,-0.552285 0.447715,-1 1,-1 l 6,0 z"
           id="menu-icon-close"
           transform="matrix(0.70710678,0.70710678,-0.70710678,0.70710678,19,-7.8700577)"
           inkscape:connector-curvature="0" />
      </g>
    </g>
  </g>
</svg>
